assets/logo.svg

<svg
  xmlns="http://www.w3.org/2000/svg"
  viewBox="0 0 1367 463"
  fill-rule="evenodd"
  clip-rule="evenodd"
  stroke-linejoin="round"
  stroke-miterlimit="2"
>
    <g fill="#fff">
    <path
      d="M258.413 168.229c8.05 0 14.583 6.946 14.583 15.496s-6.533 15.496-14.583 15.496c-8.046-.004-14.58-6.946-14.58-15.496s6.534-15.492 14.58-15.492v-.004z"
    />
    <path
      d="M218.317 249.833c-45.838-44.062-66.504-104.433-39.363-135.437 27.354-31.258 91.021-20.804 141.471 23.35 23.65 20.704 40.617 45.146 48.842 68.483l13.196-.062c-11.655-25.988-30.892-52.238-56.809-74.917-65.241-57.113-147.354-69.987-183.441-28.758-36.105 41.233-13.625 120.954 51.629 178.07 8.308 7.276 20.308 13.821 24.475 19.642v-50.371zM1314.63 205.742v-26.984h-9.629v-5.487h25.783v5.487h-9.608v26.984h-6.546zm20.3 0v-32.471h9.813l5.891 22.133 5.838-22.133h9.825v32.471h-6.104v-25.563l-6.45 25.563h-6.292l-6.438-25.563v25.563h-6.083z"
      fill-rule="nonzero"
    />
    <path
      d="M267.746 317.921c0 7.646-9.425 8.079-14.988 6.292-2.612-.801-3.916-2.896-3.916-6.292v-90.396c0-3.408 1.304-5.492 3.916-6.283.9-.23 3.696-.359 8.354-.359 4.413 0 6.634 2.225 6.634 6.642v90.396zM400.508 299.121c0 5.529-.866 9.862-2.625 13.058-4.854 8.471-19.087 12.679-42.795 12.679h-65.505c-4.362 0-6.533-2.241-6.533-6.712 0-3.025.313-5.121.925-6.321.95-1.717 2.85-2.542 5.608-2.542h65.525c17.646 0 26.496-3.262 26.496-9.804v-8.933c0-6.488-8.537-9.942-25.642-10.404-29.137-.85-45.004-1.521-47.637-1.942-17.017-2.917-25.529-10.538-25.529-22.833v-7.859c0-12.379 6.675-20.345 20.062-23.929 6.205-1.662 17.984-2.471 35.284-2.471 4.437 0 6.658 2.209 6.658 6.646v2.054c0 4.475-2.221 6.725-6.658 6.725h-8.529c-18.642 0-27.942 3.613-27.942 10.863v7.216c0 4.53 3.912 7.48 11.662 8.83 3.155.533 8.696.758 16.721.758h25.288c11.266 0 20.808 1.571 28.641 4.713 11.03 4.42 16.525 11.408 16.525 20.933v9.275zM488.025 271.412c0 5.517-2.546 8.263-7.65 8.263h-63.638c-3.787 0-6.041-.687-6.895-2.013-.517-.979-.788-3.52-.788-7.674 0-5.5 2.559-8.271 7.675-8.271h63.634c3.608 0 5.829.7 6.683 2.037.621.904.958 3.442.958 7.658m198.625-41.691c0 1.566-.5 3.354-1.45 5.333l-37.916 80.696c-2.23 4.758-6.321 7.104-12.438 7.104-5.804 0-9.833-2.271-12.121-6.883l-30.154-62.013-30.646 62.238c-2.312 4.675-6.479 6.996-12.521 6.996-6.246 0-10.504-2.429-12.679-7.321l-37.179-80.817c-.896-2.754-1.35-4.525-1.35-5.333 0-4.817 3.204-7.225 9.633-7.225 5.529 0 9.175 1.687 10.875 5l31.371 66.567 30.692-61.984c2.358-4.967 6.308-7.437 11.8-7.437 5.3 0 9.15 2.437 11.646 7.333l30.62 62.088 31.338-66.567c1.563-3.313 5.146-5 10.771-5 6.458 0 9.683 2.408 9.683 7.225M722.588 209c0 3.708-1.413 6.604-4.267 8.742-2.454 1.833-5.458 2.766-9.008 2.766-3.551 0-6.559-.933-9.001-2.766-2.845-2.138-4.27-5.034-4.27-8.742 0-3.663 1.425-6.554 4.27-8.704 2.446-1.85 5.455-2.754 9.001-2.754 3.545 0 6.55.904 9.008 2.754 2.854 2.15 4.267 5.041 4.267 8.704zm-2.826 107.471c0 5.591-2.533 8.387-7.629 8.387-5.012 0-7.929-.254-8.754-.729-2.646-1.041-3.967-3.621-3.967-7.658v-85.559c0-5.549 2.555-8.312 7.642-8.312 4.917 0 7.817.271 8.633.762 2.734 1.059 4.067 3.576 4.067 7.55v85.559h.008zm73.538-82.9c0 5.625-3.063 8.416-9.117 8.416-.837 0-2.058-.07-3.633-.179-1.592-.116-2.829-.162-3.654-.162-15.713 0-23.563 4.296-23.563 12.862v61.963c0 4.112-1.433 6.721-4.262 7.771-1.167.408-4.129.616-8.917.616-4.841 0-7.304-2.837-7.304-8.487v-61.863c0-13.329 6.246-22.354 18.717-27.104 7.65-2.983 18.991-4.471 34.045-4.471 5.13 0 7.671 3.55 7.671 10.638m133.55 42.092c0 6.166-1.945 9.241-5.729 9.241H819.371v.725c0 9.654 5.179 15.829 15.541 18.588 2.234.591 5.513 1.012 9.817 1.337 4.317.321 9.804.479 16.429.479 5.055 0 7.542 3.475 7.542 10.404 0 5.625-2.492 8.421-7.546 8.421-6.825 0-12.462-.025-16.821-.141-4.341-.113-7.691-.296-9.945-.588-11.263-1.275-19.525-4.175-24.805-8.712-7.604-6.438-11.375-14.042-11.375-22.734v-37.525c0-11.783 5.829-20.487 17.438-26.166 7.971-4.088 18.517-6.171 31.637-6.171h38.221c10.709 0 19.592 1.958 26.663 5.854 9.77 4.963 14.629 12.433 14.629 22.425v24.563h.037zm-19.983-10.184v-12.575c0-7.65-13.879-11.462-41.613-11.462-16.349 0-27.591.658-33.658 1.933-8.608 1.775-12.904 5.212-12.904 10.408v11.696h88.175zm52.25 50.992c0 5.591-2.525 8.387-7.542 8.387-4.995 0-7.925-.254-8.741-.729-2.775-1.121-4.167-3.708-4.167-7.658V203.717c0-5.567 2.496-8.313 7.542-8.313 4.737 0 7.683.2 8.845.642 2.721.987 4.059 3.562 4.059 7.671v112.754h.004zm140.358-40.808c0 6.166-1.912 9.241-5.716 9.241H992.008v.725c0 9.654 5.188 15.829 15.521 18.588 2.254.591 5.521 1.012 9.825 1.337 4.304.321 9.792.479 16.442.479 5.025 0 7.558 3.475 7.558 10.404 0 5.625-2.533 8.421-7.558 8.421-6.85 0-12.488-.025-16.846-.141-4.346-.113-7.679-.296-9.925-.588-11.258-1.275-19.538-4.175-24.833-8.712-7.58-6.438-11.371-14.042-11.371-22.734v-37.525c0-11.783 5.829-20.487 17.446-26.166 7.983-4.088 18.516-6.171 31.633-6.171h38.221c10.729 0 19.621 1.958 26.671 5.854 9.795 4.963 14.645 12.433 14.645 22.425v24.563h.021zm-19.995-10.184v-12.575c0-7.65-13.871-11.462-41.596-11.462-16.375 0-27.584.658-33.654 1.933-8.6 1.775-12.892 5.212-12.892 10.408v11.696h88.142zm146.07 30.242c0 19.416-13.504 29.137-40.545 29.137h-69.213c-5.079 0-7.571-2.796-7.571-8.421 0-6.929 2.488-10.404 7.525-10.404h69.358c12.801 0 19.188-3.446 19.188-10.312v-3.809c0-6.17-5.842-9.245-17.429-9.245h-33.296c-30.575 0-45.888-9.375-45.888-28.05v-5.559c0-12.362 7.696-20.312 23.067-23.8 3.125-.758 7.654-1.329 13.642-1.745 5.958-.392 13.483-.58 22.587-.58 5.08 0 7.604 3.55 7.604 10.638 0 5.5-2.524 8.275-7.608 8.275h-14.75c-7.75 0-12.317.1-13.883.316-6.775.988-10.188 3.3-10.188 6.896v5.338c0 6.104 8.492 9.137 25.525 9.137h33.884c25.321 0 37.95 9.188 37.95 27.534v4.654h.041zm126.113 0c0 19.416-13.521 29.137-40.546 29.137h-69.233c-5.071 0-7.579-2.796-7.579-8.421 0-6.929 2.504-10.404 7.545-10.404h69.354c12.792 0 19.2-3.446 19.2-10.312v-3.809c0-6.17-5.833-9.245-17.458-9.245h-33.246c-30.629 0-45.908-9.375-45.908-28.05v-5.559c0-12.362 7.696-20.312 23.067-23.8 3.125-.758 7.65-1.329 13.65-1.745 5.946-.392 13.45-.58 22.554-.58 5.1 0 7.642 3.55 7.642 10.638 0 5.5-2.546 8.275-7.646 8.275h-14.738c-7.712 0-12.329.1-13.891.316-6.763.988-10.184 3.3-10.184 6.896v5.338c0 6.104 8.509 9.137 25.504 9.137h33.946c25.292 0 37.942 9.188 37.942 27.534v4.654h.025z"
      fill-rule="nonzero"
    />
    <path
      d="M424.487 361.05c-52.099 49.512-161.512 29.204-249.645-47.946-91.334-79.958-125.213-190.675-75.65-247.287 49.55-56.609 163.771-37.68 255.112 42.279 34.05 29.8 60.092 63.875 76.825 97.821l21.558-.104c-21.333-38.28-51.612-76.025-89.833-109.484C244.708-7.092 95.954-30.4 30.6 44.254c-65.358 74.671-22.567 219.025 95.575 322.45 118.154 103.425 266.9 126.734 332.263 52.075 9.191-10.504 16.17-22.421 21.175-35.375l-55.126-22.354z"
      fill-rule="nonzero"
    />
    </g> 
</svg>

<?xml version="1.0" encoding="UTF-8" standalone="no" ?>
<!DOCTYPE svg PUBLIC "-//W3C//DTD SVG 1.1//EN"
  "http://www.w3.org/Graphics/SVG/1.1/DTD/svg11.dtd">
<svg
  width="100%"
  height="100%"
  viewBox="0 0 1367 463"
  version="1.1"
  xmlns="http://www.w3.org/2000/svg"
  xmlns:xlink="http://www.w3.org/1999/xlink"
  xml:space="preserve"
  xmlns:serif="http://www.serif.com/"
  fill-rule="evenodd"
  clip-rule="evenodd"
  stroke-linejoin="round"
  stroke-miterlimit="2"
>
    <path
    d="M258.413,168.229C266.463,168.229 272.996,175.175 272.996,183.725C272.996,192.275 266.463,199.221 258.413,199.221C250.367,199.217 243.833,192.275 243.833,183.725C243.833,175.175 250.367,168.233 258.413,168.233L258.413,168.229Z"
    fill="white"
  />
    <path
    d="M218.317,249.833C172.479,205.771 151.813,145.4 178.954,114.396C206.308,83.138 269.975,93.592 320.425,137.746C344.075,158.45 361.042,182.892 369.267,206.229L382.463,206.167C370.808,180.179 351.571,153.929 325.654,131.25C260.413,74.137 178.3,61.263 142.213,102.492C106.108,143.725 128.588,223.446 193.842,280.562C202.15,287.838 214.15,294.383 218.317,300.204L218.317,249.833Z"
    fill-rule="nonzero"
    fill="white"
  />
    <path
    d="M1314.63,205.742L1314.63,178.758L1305,178.758L1305,173.271L1330.78,173.271L1330.78,178.758L1321.18,178.758L1321.18,205.742L1314.63,205.742ZM1334.93,205.742L1334.93,173.271L1344.74,173.271L1350.63,195.404L1356.47,173.271L1366.3,173.271L1366.3,205.742L1360.19,205.742L1360.19,180.179L1353.74,205.742L1347.45,205.742L1341.01,180.179L1341.01,205.742L1334.93,205.742Z"
    fill-rule="nonzero"
    fill="white"
  />
    <path
    d="M267.746,317.921C267.746,325.567 258.321,326 252.758,324.213C250.146,323.412 248.842,321.317 248.842,317.921L248.842,227.525C248.842,224.117 250.146,222.033 252.758,221.242C253.658,221.012 256.454,220.883 261.112,220.883C265.525,220.883 267.746,223.108 267.746,227.525L267.746,317.921Z"
    fill-rule="nonzero"
    fill="white"
  />
    <path
    d="M400.508,299.121C400.508,304.65 399.642,308.983 397.883,312.179C393.029,320.65 378.796,324.858 355.088,324.858L289.583,324.858C285.221,324.858 283.05,322.617 283.05,318.146C283.05,315.121 283.363,313.025 283.975,311.825C284.925,310.108 286.825,309.283 289.583,309.283L355.108,309.283C372.754,309.283 381.604,306.021 381.604,299.479L381.604,290.546C381.604,284.058 373.067,280.604 355.962,280.142C326.825,279.292 310.958,278.621 308.325,278.2C291.308,275.283 282.796,267.662 282.796,255.367L282.796,247.508C282.796,235.129 289.471,227.163 302.858,223.579C309.063,221.917 320.842,221.108 338.142,221.108C342.579,221.108 344.8,223.317 344.8,227.754L344.8,229.808C344.8,234.283 342.579,236.533 338.142,236.533L329.613,236.533C310.971,236.533 301.671,240.146 301.671,247.396L301.671,254.612C301.671,259.142 305.583,262.092 313.333,263.442C316.488,263.975 322.029,264.2 330.054,264.2L355.342,264.2C366.608,264.2 376.15,265.771 383.983,268.913C395.013,273.333 400.508,280.321 400.508,289.846L400.508,299.121Z"
    fill-rule="nonzero"
    fill="white"
  />
    <path
    d="M488.025,271.412C488.025,276.929 485.479,279.675 480.375,279.675L416.737,279.675C412.95,279.675 410.696,278.988 409.842,277.662C409.325,276.683 409.054,274.142 409.054,269.988C409.054,264.488 411.613,261.717 416.729,261.717L480.363,261.717C483.971,261.717 486.192,262.417 487.046,263.754C487.667,264.658 488.004,267.196 488.004,271.412M686.629,229.721C686.629,231.287 686.129,233.075 685.179,235.054L647.263,315.75C645.033,320.508 640.942,322.854 634.825,322.854C629.021,322.854 624.992,320.583 622.704,315.971L592.55,253.958L561.904,316.196C559.592,320.871 555.425,323.192 549.383,323.192C543.137,323.192 538.879,320.763 536.704,315.871L499.525,235.054C498.629,232.3 498.175,230.529 498.175,229.721C498.175,224.904 501.379,222.496 507.808,222.496C513.337,222.496 516.983,224.183 518.683,227.496L550.054,294.063L580.746,232.079C583.104,227.112 587.054,224.642 592.546,224.642C597.846,224.642 601.696,227.079 604.192,231.975L634.812,294.063L666.15,227.496C667.713,224.183 671.296,222.496 676.921,222.496C683.379,222.496 686.604,224.904 686.604,229.721M722.588,209C722.588,212.708 721.175,215.604 718.321,217.742C715.867,219.575 712.863,220.508 709.313,220.508C705.762,220.508 702.754,219.575 700.312,217.742C697.467,215.604 696.042,212.708 696.042,209C696.042,205.337 697.467,202.446 700.312,200.296C702.758,198.446 705.767,197.542 709.313,197.542C712.858,197.542 715.863,198.446 718.321,200.296C721.175,202.446 722.588,205.337 722.588,209ZM719.762,316.471C719.762,322.062 717.229,324.858 712.133,324.858C707.121,324.858 704.204,324.604 703.379,324.129C700.733,323.088 699.412,320.508 699.412,316.471L699.412,230.912C699.412,225.363 701.967,222.6 707.054,222.6C711.971,222.6 714.871,222.871 715.687,223.362C718.421,224.421 719.754,226.938 719.754,230.912L719.754,316.471L719.762,316.471ZM793.3,233.571C793.3,239.196 790.237,241.987 784.183,241.987C783.346,241.987 782.125,241.917 780.55,241.808C778.958,241.692 777.721,241.646 776.896,241.646C761.183,241.646 753.333,245.942 753.333,254.508L753.333,316.471C753.333,320.583 751.9,323.192 749.071,324.242C747.904,324.65 744.942,324.858 740.154,324.858C735.313,324.858 732.85,322.021 732.85,316.371L732.85,254.508C732.85,241.179 739.096,232.154 751.567,227.404C759.217,224.421 770.558,222.933 785.612,222.933C790.742,222.933 793.283,226.483 793.283,233.571M926.833,275.663C926.833,281.829 924.888,284.904 921.104,284.904L819.371,284.904L819.371,285.629C819.371,295.283 824.55,301.458 834.912,304.217C837.146,304.808 840.425,305.229 844.729,305.554C849.046,305.875 854.533,306.033 861.158,306.033C866.213,306.033 868.7,309.508 868.7,316.437C868.7,322.062 866.208,324.858 861.154,324.858C854.329,324.858 848.692,324.833 844.333,324.717C839.992,324.604 836.642,324.421 834.388,324.129C823.125,322.854 814.863,319.954 809.583,315.417C801.979,308.979 798.208,301.375 798.208,292.683L798.208,255.158C798.208,243.375 804.037,234.671 815.646,228.992C823.617,224.904 834.163,222.821 847.283,222.821L885.504,222.821C896.213,222.821 905.096,224.779 912.167,228.675C921.937,233.638 926.796,241.108 926.796,251.1L926.796,275.663L926.833,275.663ZM906.85,265.479L906.85,252.904C906.85,245.254 892.971,241.442 865.237,241.442C848.888,241.442 837.646,242.1 831.579,243.375C822.971,245.15 818.675,248.587 818.675,253.783L818.675,265.479L906.85,265.479ZM959.1,316.471C959.1,322.062 956.575,324.858 951.558,324.858C946.563,324.858 943.633,324.604 942.817,324.129C940.042,323.008 938.65,320.421 938.65,316.471L938.65,203.717C938.65,198.15 941.146,195.404 946.192,195.404C950.929,195.404 953.875,195.604 955.037,196.046C957.758,197.033 959.096,199.608 959.096,203.717L959.096,316.471L959.1,316.471ZM1099.46,275.663C1099.46,281.829 1097.55,284.904 1093.74,284.904L992.008,284.904L992.008,285.629C992.008,295.283 997.196,301.458 1007.53,304.217C1009.78,304.808 1013.05,305.229 1017.35,305.554C1021.66,305.875 1027.15,306.033 1033.8,306.033C1038.82,306.033 1041.35,309.508 1041.35,316.437C1041.35,322.062 1038.82,324.858 1033.8,324.858C1026.95,324.858 1021.31,324.833 1016.95,324.717C1012.6,324.604 1009.27,324.421 1007.02,324.129C995.767,322.854 987.487,319.954 982.192,315.417C974.612,308.979 970.821,301.375 970.821,292.683L970.821,255.158C970.821,243.375 976.65,234.671 988.267,228.992C996.25,224.904 1006.78,222.821 1019.9,222.821L1058.12,222.821C1068.85,222.821 1077.74,224.779 1084.79,228.675C1094.59,233.638 1099.44,241.108 1099.44,251.1L1099.44,275.663L1099.46,275.663ZM1079.46,265.479L1079.46,252.904C1079.46,245.254 1065.59,241.442 1037.87,241.442C1021.49,241.442 1010.28,242.1 1004.21,243.375C995.613,245.15 991.321,248.587 991.321,253.783L991.321,265.479L1079.46,265.479ZM1225.53,295.721C1225.53,315.137 1212.03,324.858 1184.99,324.858L1115.78,324.858C1110.7,324.858 1108.2,322.062 1108.2,316.437C1108.2,309.508 1110.69,306.033 1115.73,306.033L1185.09,306.033C1197.89,306.033 1204.28,302.587 1204.28,295.721L1204.28,291.912C1204.28,285.742 1198.43,282.667 1186.85,282.667L1153.55,282.667C1122.98,282.667 1107.66,273.292 1107.66,254.617L1107.66,249.058C1107.66,236.696 1115.36,228.746 1130.73,225.258C1133.85,224.5 1138.38,223.929 1144.37,223.513C1150.33,223.121 1157.85,222.933 1166.96,222.933C1172.04,222.933 1174.56,226.483 1174.56,233.571C1174.56,239.071 1172.04,241.846 1166.95,241.846L1152.2,241.846C1144.45,241.846 1139.89,241.946 1138.32,242.162C1131.55,243.15 1128.13,245.462 1128.13,249.058L1128.13,254.396C1128.13,260.5 1136.62,263.533 1153.66,263.533L1187.54,263.533C1212.86,263.533 1225.49,272.721 1225.49,291.067L1225.49,295.721L1225.53,295.721ZM1351.65,295.721C1351.65,315.137 1338.12,324.858 1311.1,324.858L1241.87,324.858C1236.8,324.858 1234.29,322.062 1234.29,316.437C1234.29,309.508 1236.79,306.033 1241.83,306.033L1311.19,306.033C1323.98,306.033 1330.39,302.587 1330.39,295.721L1330.39,291.912C1330.39,285.742 1324.55,282.667 1312.93,282.667L1279.68,282.667C1249.05,282.667 1233.78,273.292 1233.78,254.617L1233.78,249.058C1233.78,236.696 1241.47,228.746 1256.84,225.258C1259.97,224.5 1264.49,223.929 1270.49,223.513C1276.44,223.121 1283.94,222.933 1293.05,222.933C1298.15,222.933 1300.69,226.483 1300.69,233.571C1300.69,239.071 1298.14,241.846 1293.04,241.846L1278.3,241.846C1270.59,241.846 1265.98,241.946 1264.41,242.162C1257.65,243.15 1254.23,245.462 1254.23,249.058L1254.23,254.396C1254.23,260.5 1262.74,263.533 1279.73,263.533L1313.68,263.533C1338.97,263.533 1351.62,272.721 1351.62,291.067L1351.62,295.721L1351.65,295.721Z"
    fill-rule="nonzero"
    fill="white"
  />
    <path
    d="M424.487,361.05C372.388,410.562 262.975,390.254 174.842,313.104C83.508,233.146 49.629,122.429 99.192,65.817C148.742,9.208 262.963,28.137 354.304,108.096C388.354,137.896 414.396,171.971 431.129,205.917L452.687,205.813C431.354,167.533 401.075,129.788 362.854,96.329C244.708,-7.092 95.954,-30.4 30.6,44.254C-34.758,118.925 8.033,263.279 126.175,366.704C244.329,470.129 393.075,493.438 458.438,418.779C467.629,408.275 474.608,396.358 479.613,383.404L424.487,361.05Z"
    fill-rule="nonzero"
    fill="white"
  />
</svg>
